X: 1413
T: Müheyyâ Oldu Meclis
C: Râkım Elkutlu
O: Turkey
F: http://compmusic.upf.edu/node/140
N: huseyni--beste--duyek--muheyya_oldu--rakim_elkutlu
N: makam= huseyni
N: form= beste
N: usul= duyek = 8/4
M: 8/4
L: 1/16
K: C _2/4B ^3/4f  
Q: 1/4=120
%%MIDI tuningsystem comma53
A2 d4 e2 e2 {g}fe e4  | e2 e4 d2 d2 {=f}ed e3/2d/ c2  | \
w:  Mü hey *  yâ  *  *  *  ol  |  du  mec *  lis  *  *  *  sâ  | 
d2 e4 ^f2 d4 c'3_1/4b  | 
w:  ki yâ  *  pey mâ  | 
_1/4ba ag g3f (3gfg a2 e4  | A2 d4 e2 e2 {g}fe e4  | \
w:  ne *  ler  *  *  *  dön *  *  *  sün    |  Mü hey *  yâ  *  *  *  ol  | 
e2 e4 d2 d2 {=f}ed e3/2d/ c2  | 
w:  du  mec *  lis  *  *  *  sâ  | 
d2 e4 ^f2 d4 c'3_1/4b  | _1/4ba ag g3f (3gfg a2 e4  | \
w:  ki yâ  *  pey mâ  |  ne *  ler  *  *  *  dön *  *  *  sün    | 
d2 e4 ed e3/2d/ cd e4  | 
w:  Gel   | 
z2 ef g2 a2 g2 ^1/4f2 e2 d2  | c2 d4 {e}dc c3B e2 dc  | \
w:  gel   |  gel  iş *  ve *  ba  | 
B2 c4 cB BA AB c4  | 
w:  zım   *  SAZ  | 
d2 e4 ed ef ga e3d  | ag g=f fe ed dc cB B3/2A/ G2  | 
w:  Gel   |  gel   | 
c2 c4 _3/4de d3c B2 c2  | B2 c4 G2 A2 B2 c4  | \
w:  gel  çâ re  *  sâ  |  zım   *  SAZ  | 
G2 c4 _3/4de d3/2c/ Bd c4  | 
w:  Ter  dil  li  *  te  *  *  ne  nen    | 
.G2 .c4 .G2 .c4 .e4  | c2 _3/4dd dc cd cB2c B2 c2  | \
w:  Te  nen  te  nen  nen    |  Nâ  te  re  dil  *  li  *  ney  *  *  vay    | 
d2 e4 ed (3dcd ed d2 a2  | 
w:  Yâr   | 
ag g=f fe ed dc cB B3/2A/ G2  | G2 c2 B2 d2 A4 G2 A2  | 
w:  yâr  *  *  *  *  *  *  *  *  *  *  *  pey  |  *  mâ *  ne ler  dön  | 
G2 A4 gf fe ef g4  | d2 g4 f2 g2 {a}gf g4  | \
w:  sün   *  SAZ  |  Bu  bezm_ *  i  *  *  *  rûh   | 
g2 a4 c'b ag fg e4  | 
w:  *  bah *  *  şın  *  *  *  şev  | 
d2 e4 (3fef d4 c'3_1/4b  | _1/4ba ag g3f (3gfg a2 e4  | \
w:  ki ne  *  *  *  mes tâ  |  ne *  ler  *  *  *  dön *  *  *  sün    | 
d2 e4 ed e3/2d/ cd e4  | 
w:  Gel   | 
z2 ef g2 a2 g2 ^1/4f2 e2 d2  | c2 d4 {e}dc c3B e2 dc  | \
w:  gel   |  gel  iş *  ve *  ba  | 
B2 c4 cB BA AB c4  | 
w:  zım   *  SAZ  | 
d2 e4 ed ef ga e3d  | ag g=f fe ed dc cB B3/2A/ G2  | 
w:  Gel   |  gel   | 
c2 c4 _3/4de d3c B2 c2  | B2 c4 G2 A2 B2 c4  | \
w:  gel  çâ re  *  sâ  |  zım   *  SAZ  | 
G2 c4 _3/4de d3/2c/ Bd c4  | 
w:  Ter  dil  li  *  te  *  *  ne  nen    | 
.G2 .c4 .G2 .c4 .e4  | c2 _3/4dd dc cd cB2c B2 c2  | \
w:  Te  nen  te  nen  nen    |  Nâ  te  re  dil  *  li  *  ney  *  *  vay    | 
d2 e4 ed (3dcd ed d2 a2  | 
w:  Yâr   | 
ag g=f fe ed dc cB B3/2A/ G2  | G2 c2 B2 d2 A4 G2 A2  | 
w:  yâr  *  *  *  *  *  *  *  *  *  *  *  pey  |  *  mâ *  ne ler  dön  | 
G2 A4 |
w:  sün    | 


